X:1
T:Ferryland Sealer
M:2/4
L:1/8
K:C
 AG| FD DC| DE FD| C2 CA,| C2 FG| A2 Ac| AG FG| A2 GG| G2 Ac| d2 de|\
 dc AG| GF DC| D2 FG| A2 Ac|A-G FA| c2 cd|c-A GF| D2 D3/2 E/2| DC A,C|\
 D2 D3/2 E/2| D2||
